48x48/apps/comsol.svg

<svg xmlns="http://www.w3.org/2000/svg" width="48" height="48" version="1">
 <rect style="opacity:0.2" width="34.299" height="34.299" x="17.5" y="-16.44" rx="10.29" ry="10.29" transform="rotate(45)"/>
 <rect style="fill:#f4f4f7" width="34.299" height="34.299" x="16.79" y="-17.15" rx="10.29" ry="10.29" transform="rotate(45)"/>
 <path style="opacity:0.1" d="m 14,18 a 4,7 0 0 0 -4,7 4,7 0 0 0 4,7 h 20 a 4,7 0 0 0 4,-7 4,7 0 0 0 -4,-7 z"/>
 <path style="fill:#3068c1" d="M 14 17 A 4 7 0 0 0 10 24 A 4 7 0 0 0 14 31 L 34 31 A 4 7 0 0 0 38 24 A 4 7 0 0 0 34 17 L 14 17 z"/>
 <path style="opacity:0.2;fill:#f4f4f7" d="M 14 17 A 4 7 0 0 0 10 24 L 14 24 L 14 17 z M 18 17 L 18 24 L 22 24 L 22 17 L 18 17 z M 26 17 L 26 24 L 30 24 L 30 17 L 26 17 z M 34 17 L 34 24 L 38 24 A 4 7 0 0 0 34 17 z"/>
 <circle style="opacity:0.1" cx="14" cy="26" r="6"/>
 <path style="opacity:0.2" d="M 14 17 L 14 24 L 18 24 L 18 17 L 14 17 z M 22 17 L 22 24 L 26 24 L 26 17 L 22 17 z M 30 17 L 30 24 L 34 24 L 34 17 L 30 17 z"/>
 <circle style="fill:#ffa802" cx="14" cy="25" r="6"/>
 <circle style="opacity:0.1" cx="14" cy="26" r="4"/>
 <circle style="fill:#ffd264" cx="14" cy="25" r="4"/>
 <circle style="opacity:0.1" cx="14" cy="26" r="2"/>
 <circle style="fill:#ffe6bc" cx="14" cy="25" r="2"/>
 <path style="fill:#f4f4f7;opacity:0.2" d="M 24 4 C 21.369793 4 18.74001 5.0080371 16.724609 7.0234375 L 7.0234375 16.724609 C 4.8800797 18.867967 3.8873561 21.705438 4.0234375 24.5 C 4.1432709 22.039106 5.1359945 19.612052 7.0234375 17.724609 L 16.724609 8.0234375 C 20.75541 3.9926366 27.24459 3.9926366 31.275391 8.0234375 L 40.976562 17.724609 C 42.864006 19.612052 43.856729 22.039106 43.976562 24.5 C 44.112644 21.705438 43.11992 18.867967 40.976562 16.724609 L 31.275391 7.0234375 C 29.25999 5.0080371 26.630207 4 24 4 z"/>
</svg>

<svg xmlns="http://www.w3.org/2000/svg" width="48" height="48" version="1"><rect style="opacity:.2" width="34.299" height="34.299" x="17.5" y="-16.44" rx="10.29" ry="10.29" transform="rotate(45)"/><rect style="fill:#f4f4f7" width="34.299" height="34.299" x="16.79" y="-17.15" rx="10.29" ry="10.29" transform="rotate(45)"/><path style="opacity:.1" d="M14 18a4 7 0 0 0-4 7 4 7 0 0 0 4 7h20a4 7 0 0 0 4-7 4 7 0 0 0-4-7z"/><path style="fill:#3068c1" d="M14 17a4 7 0 0 0-4 7 4 7 0 0 0 4 7h20a4 7 0 0 0 4-7 4 7 0 0 0-4-7H14z"/><path style="opacity:.2;fill:#f4f4f7" d="M14 17a4 7 0 0 0-4 7h4v-7zm4 0v7h4v-7h-4zm8 0v7h4v-7h-4zm8 0v7h4a4 7 0 0 0-4-7z"/><circle style="opacity:.1" cx="14" cy="26" r="6"/><path style="opacity:.2" d="M14 17v7h4v-7h-4zm8 0v7h4v-7h-4zm8 0v7h4v-7h-4z"/><circle style="fill:#ffa802" cx="14" cy="25" r="6"/><circle style="opacity:.1" cx="14" cy="26" r="4"/><circle style="fill:#ffd264" cx="14" cy="25" r="4"/><circle style="opacity:.1" cx="14" cy="26" r="2"/><circle style="fill:#ffe6bc" cx="14" cy="25" r="2"/><path style="fill:#f4f4f7;opacity:.2" d="M24 4c-2.63 0-5.26 1.008-7.275 3.023l-9.702 9.702a10.245 10.245 0 0 0-3 7.775 10.244 10.244 0 0 1 3-6.775l9.702-9.702a10.266 10.266 0 0 1 14.55 0l9.702 9.702a10.244 10.244 0 0 1 3 6.775 10.245 10.245 0 0 0-3-7.775l-9.702-9.702A10.256 10.256 0 0 0 24 4z"/></svg>
